X: 24114
T: Longest Day, The
R: barndance
M: 4/4
K: Amajor
[E2B2] c2 A2 F2|{D}E4 E4|[E2B2] c2 A2 F2|{D}E2 E{FE}D B,2 D2|
[E2B2] c2 A2 F2|{D}E4 E2{FE} D2|C2 A,4 B,2|C2 A,6:|
[A,4E4] A,3 B,|C2 D4 F2|E4 E3{FE} D|=G2 E4{FE} D2|
[A,4E4] A,3 B,|C2 D4 F2|E2 FE D2 B,D|{=G,}A,4 A,4:|

